!!!!SEGMENT: Arc2002-Congregati_sunt.krn
!!!id: Arc2002
!!!AGN: Motet
!!!voices: 5
!!!COM: Jacques Arcadelt
!!!OTL: Congregati sunt
**kern	**kern	**kern	**kern	**kern
*part5	*part4	*part3	*part2	*part1
*staff5	*staff4	*staff3	*staff2	*staff1
*I"Bassus	*I"Tenor II	*I"Tenor I	*I"Altus	*I"Superius
*I'B	*I'T. II	*I'T. I	*I'A	*I'S
*clefF4	*clefGv2	*clefGv2	*clefGv2	*clefG2
*k[b-]	*k[b-]	*k[b-]	*k[b-]	*k[b-]
*F:	*F:	*F:	*F:	*F:
*M2/1	*M2/1	*M2/1	*M2/1	*M2/1
*met(C|)	*met(C|)	*met(C|)	*met(C|)	*met(C|)
!!section: Prima pars: Congregati sunt
!!!OMD: Prima pars: Congregati sunt
=1	=1	=1	=1	=1
0r	0r	0r	1G	0r
.	.	.	2A	.
.	.	.	[2B-y	.
=2	=2	=2	=2	=2
0r	1r	0r	2B-]	0r
.	.	.	2G	.
.	1G	.	1d	.
=3	=3	=3	=3	=3
0r	2A	0r	2c	1r
.	1B-y	.	2.d	.
.	.	.	.	1g
.	.	.	4G	.
.	2G	.	[2g	.
=4	=4	=4	=4	=4
0r	1d	0r	2g]	2a
.	.	.	2f	1b-y
.	2.G	.	2.g	.
.	.	.	.	2g
.	4A	.	8fL	.
.	.	.	8eJ	.
=5	=5	=5	=5	=5
1G	4B-y	0r	2d	1dd
.	4c	.	.	.
.	4d	.	2B-y	.
.	4e	.	.	.
2A	2.f	.	2c	1r
[2B-y	.	.	2d	.
.	4e	.	.	.
=6	=6	=6	=6	=6
2B-]	1d	0r	2G	1g
2G	.	.	2g	.
1d	2r	.	2f	2a
.	2G	.	2g	2b-y
=7	=7	=7	=7	=7
2r	2A	1r	2c	2cc
1G	1B-y	.	1d	4b-y
.	.	.	.	4a
.	.	1G	.	1g
2E	2G	.	[2e	.
=8	=8	=8	=8	=8
2F	1d	2A	4e]	2r
.	.	.	4d	.
2G	.	1B-y	1d	1g
1E-X	2r	.	.	.
.	[2G	2G	2c	2g
=9	=9	=9	=9	=9
1D	2G]	1d	2A	2a
.	2F	.	1d	2.b-y
1r	2G	2r	.	.
.	.	.	.	4a
.	2A	[2f	2c	[2a
=10	=10	=10	=10	=10
1r	1B-y	2f]	2.d	2a]
.	.	4e	.	2g
.	.	4d	4e	.
2r	2A	2c	2f	2a
[2C	2G	[2e	[2g	[2cc
=11	=11	=11	=11	=11
2C]	1r	4e]	2g]	2cc]
.	.	4d	.	.
2D	.	1d	2f	4b-y
.	.	.	.	4a
2E	2.G	.	1e	1g
2C	.	2c#i	.	.
.	4A	.	.	.
=12	=12	=12	=12	=12
2G	2B-y	2d	2d	1r
2G	2G	2G	2B-y	.
2F	1d	2A	2A	2r
2D	.	[2B-y	2F	[2dd
=13	=13	=13	=13	=13
2E	2r	2B-]	1G	2dd]
2E	1g	2G	.	2cc
1D	.	1d	1A	2dd
.	2f	.	.	2ff
=14	=14	=14	=14	=14
0r	1g	2r	2G	2ee
.	.	4G	1g	2.dd
.	.	4A	.	.
.	2d	4B-y	.	.
.	.	4c	.	4cc
.	2f	2d	2f	[2b-y
=15	=15	=15	=15	=15
1r	1e	2G	2g	4b-]
.	.	.	.	4a
.	.	2A	2c	1a
2r	1d	1B-y	1d	.
[2G	.	.	.	2g
=16	=16	=16	=16	=16
2G]	2r	2A	2e	1a
2F	2A	2.c	2.f	.
1G	2B-y	.	.	2d
.	.	4B-y	4e	.
.	2G	[2B-y	[2e	2e
=17	=17	=17	=17	=17
2D	1A	4B-]	4e]	1f
.	.	4A	4d	.
2F	.	1A	1d	.
1E	1r	.	.	1g
.	.	2G	2c#i	.
=18	=18	=18	=18	=18
1D	2r	2A	1d	2.f
.	1d	2B-y	.	.
.	.	.	.	4g
2r	.	1A	2e	1a
[2A	2c	.	2c	.
=19	=19	=19	=19	=19
2A]	1d	1B-y	2f	2r
2G	.	.	2g	1dd
1A	2A	2r	1e	.
.	2c	2e	.	2cc
=20	=20	=20	=20	=20
2.D	2B-y	2.f	2d	1dd
.	2A	.	2.f	.
4E	.	4e	.	.
4F	1r	2d	.	2a
4G	.	.	4e	.
2A	.	2c	[2e	2cc
=21	=21	=21	=21	=21
2G	0r	1d	4e]	2b-y
.	.	.	4d	.
2F	.	.	1d	2.a
1E	.	1G	.	.
.	.	.	.	4g
.	.	.	2c#i	[2g
=22	=22	=22	=22	=22
1D	2r	1A	1d	2g]
.	2A	.	.	2f#i
1G	2B-y	[1G	2r	[1g
.	2G	.	2d	.
=23	=23	=23	=23	=23
1C	0c	1G]	2e	0g_
.	.	.	2c	.
2r	.	1r	1e	.
2C	.	.	.	.
=24	=24	=24	=24	=24
1G	1.B-y	2r	1d	1g]
.	.	2G	.	.
2G	.	1d	1r	1r
2F	2A	.	.	.
=25	=25	=25	=25	=25
2G	2B-y	2d	0r	0r
2A	1c	2c	.	.
2F	.	2d	.	.
[2G	2B-y	2e	.	.
=26	=26	=26	=26	=26
2G]	1A	2c	2r	1r
2F	.	1d	2d	.
1E	2.G	.	1g	2r
.	.	2c	.	2g
.	4A	.	.	.
=27	=27	=27	=27	=27
1D	4B-y	2B-y	2g	1dd
.	4c	.	.	.
.	2.d	2A	2f	.
1r	.	1r	2g	2dd
.	4c	.	.	.
.	2A	.	2a	2cc
=28	=28	=28	=28	=28
0r	2B-y	0r	2f	2dd
.	2G	.	1g	2ee
.	2A	.	.	2cc
.	2B-y	.	2f	[2dd
=29	=29	=29	=29	=29
1C	1c	2.G	1e	2dd]
.	.	.	.	2cc
.	.	4A	.	.
1G	2r	4B-y	1d	1b-y
.	.	4c	.	.
.	2G	[2d	.	.
=30	=30	=30	=30	=30
2G	1d	4d]	0r	1a
.	.	4c	.	.
2F	.	2A	.	.
2G	2d	2B-y	.	1r
2A	2c	[2c	.	.
=31	=31	=31	=31	=31
2F	2d	2c]	0r	0r
1G	2e	2B-y	.	.
.	2c	1A	.	.
2F	[2d	.	.	.
=32	=32	=32	=32	=32
1E	2d]	2.G	2r	1r
.	2c	.	2G	.
.	.	4A	.	.
[1D	1B-y	4B-y	1d	2r
.	.	4c	.	.
.	.	4d	.	2d
.	.	4e	.	.
=33	=33	=33	=33	=33
1D]	1A	2.f	2d	1a
.	.	.	1f	.
.	.	4e	.	.
1r	1r	2d	.	2a
.	.	4c	2e	[2cc
.	.	4B-y	.	.
=34	=34	=34	=34	=34
0r	0r	2A	2c	2cc]
.	.	2B-y	2d	2b-y
.	.	2.c	1e	2.g
.	.	4B-y	.	4a
=35	=35	=35	=35	=35
0r	2r	4G	2.d	1b-y
.	.	4A	.	.
.	2G	1B-y	.	.
.	.	.	4e	.
.	1d	.	2f	2r
.	.	4A	[2g	[2b-y
.	.	4G	.	.
=36	=36	=36	=36	=36
0r	2d	1d	2g]	4b-]
.	.	.	.	4a
.	1f	.	2f	2.a
.	.	1r	2.g	.
.	.	.	.	4g
.	2e	.	.	[2g
.	.	.	4f	.
=37	=37	=37	=37	=37
1r	2c	0r	2e	2g]
.	2d	.	1d	2f
2r	1e	.	.	[1g
2C	.	.	2c	.
=38	=38	=38	=38	=38
1G	1d	2r	2.B-y	1g]
.	.	2G	.	.
.	.	.	4A	.
2G	2r	1d	1G	1r
[2B-y	[2d	.	.	.
=39	=39	=39	=39	=39
2B-]	2d]	2d	0r	0r
2A	2c	1f	.	.
2F	2A	.	.	.
2G	2B-y	2e	.	.
=40	=40	=40	=40	=40
1A	1c	2.c	0r	1r
.	.	4d	.	.
2G	2B-y	2e	.	2r
2F	2A	[2d	.	2a
=41	=41	=41	=41	=41
1E-X	1G	2d]	2r	2b-y
.	.	2c	1g	2cc
2D	1r	2B-y	.	[1dd
2D	.	2A	2f	.
=42	=42	=42	=42	=42
1G	1r	1B-y	2g	2dd]
.	.	.	2d	2b-y
1C	2r	1G	1e-i	2.cc
.	[2g	.	.	.
.	.	.	.	4b-y
=43	=43	=43	=43	=43
1D	2g]	0r	2.d	1a
.	2f	.	.	.
.	.	.	4c	.
1G	2g	.	1B-y	[1g
.	2d	.	.	.
=44	=44	=44	=44	=44
1C	1e-i	2r	1c	1g]
.	.	1g	.	.
1D	2.d	.	1A	1r
.	.	2f	.	.
.	4c	.	.	.
=45	=45	=45	=45	=45
0r	1B-y	2g	1G	2r
.	.	2d	.	1dd
.	2A	1e	2r	.
.	2c	.	[2g	2cc
=46	=46	=46	=46	=46
1r	2B-y	2d	2g]	2dd
.	2A	2c	2f	2a
2r	1G	1d	2g	1b-y
[2G	.	.	2d	.
=47	=47	=47	=47	=47
2G]	2r	2c	2e	1a
2F	1c	2A	2f	.
2G	.	2r	1d	1r
2D	2B-y	[2d	.	.
=48	=48	=48	=48	=48
1E	2c	2d]	2r	0r
.	2G	2c	1g	.
1D	1A	2d	.	.
.	.	2A	2f	.
=49	=49	=49	=49	=49
1G	2G	1B-y	2g	0r
.	1d	.	2d	.
1C	.	2.G	1e	.
.	2c	.	.	.
.	.	4A	.	.
=50	=50	=50	=50	=50
1r	2d	2B-y	2d	2r
.	2A	2c	2.f	1a
2r	1B-y	1d	.	.
.	.	.	4e	.
[2G	.	.	[2d	2g
=51	=51	=51	=51	=51
2G]	1A	2e	4d]	2a
.	.	.	4c	.
2F	.	2f	2A	2cc
2G	2G	1d	4B-y	2b-y
.	.	.	4c	.
2D	2F	.	[2d	[2a
=52	=52	=52	=52	=52
1E	1G	1r	2d]	4a]
.	.	.	.	4g
.	.	.	2c#i	1g
1D	1A	2r	[1d	.
.	.	2A	.	2f#i
=53	=53	=53	=53	=53
1r	1G	2B-y	1d]	1g
.	.	2G	.	.
[1G	[1B-y	1d	2r	[1g
.	.	.	2G	.
=54	=54	=54	=54	=54
2G]	2B-]	2r	2B-y	2g]
2G	2B-y	1d	2G	2g
1G	1B-y	.	2.d	1g
.	.	2d	.	.
.	.	.	4e	.
=55	=55	=55	=55	=55
2.D	1A	2d	2.f	0a
.	.	2.A	.	.
4C	.	.	4e	.
4D	2.F	.	2d	.
4E	.	4G	.	.
[2F	.	4A	2c	.
.	4G	4B-y	.	.
=56	=56	=56	=56	=56
4F]	4A	4c	0r	0r
4E	4B-y	4d	.	.
4C	2c	4e	.	.
4D	.	4f	.	.
4E	4G	2g	.	.
4F	4A	.	.	.
4G	4B-y	[2g	.	.
4A	4c	.	.	.
=57	=57	=57	=57	=57
4B-y	2.d	2g]	1r	0r
4c	.	.	.	.
1d	.	2f	.	.
.	4c	.	.	.
.	4A	1e	2r	.
.	4B-y	.	.	.
2c	4c	.	[2g	.
.	4A	.	.	.
=58	=58	=58	=58	=58
2d	4B-y	1d	2g]	0r
.	4c	.	.	.
2D	1d	.	2f	.
2E	.	2r	1e	.
2C	2c	[2c	.	.
=59	=59	=59	=59	=59
2.G	2d	2c]	1d	0r
.	2G	2B-y	.	.
4A	.	.	.	.
4B-y	2r	4G	1r	.
4c	.	4A	.	.
[2d	[2G	4B-y	.	.
.	.	4c	.	.
=60	=60	=60	=60	=60
4d]	2G]	1d	2.B-y	1b-y
4c	.	.	.	.
4B-y	2G	.	.	.
4A	.	.	4c	.
4G	2.B-y	1r	2d	1b-y
4F	.	.	.	.
4E	.	.	[2G	.
4D	4G	.	.	.
=61	=61	=61	=61	=61
1E-X	2.B-y	1r	4G]	1g
.	.	.	4A	.
.	.	.	4B-y	.
.	4c	.	4G	.
1D	1d	2r	1A	1f
.	.	2d	.	.
=62	=62	=62	=62	=62
2r	1G	2B-y	1d	2r
1G	.	2.d	.	1b-y
.	1r	.	2B-y	.
.	.	4e	.	.
2F	.	[2f	[2d	2a
=63	=63	=63	=63	=63
2G	1r	4f]	2d]	2b-y
.	.	4e	.	.
2A	.	2.e	2c	2cc
2B-y	2r	.	2f	2.dd
.	.	4d	.	.
2B-y	2G	[2d	2g	.
.	.	.	.	4ee
=64	=64	=64	=64	=64
1A	1c	2d]	1a	2ff
.	.	2c	.	2.ee
2F	[1A	1d	2r	.
.	.	.	.	4dd
2D	.	.	[2a	[2dd
=65	=65	=65	=65	=65
1A	1A]	1e	4a]	2dd]
.	.	.	4g	.
.	.	.	2e	2cc#i
1D	2r	2.d	1f	1dd
.	2d	.	.	.
.	.	4c	.	.
=66	=66	=66	=66	=66
0r	2G	4B-y	1d	1r
.	.	4A	.	.
.	2.d	2.B-y	.	.
.	.	.	2G	1dd
.	4c	4c	.	.
.	4B-y	[2d	[2g	.
.	4A	.	.	.
=67	=67	=67	=67	=67
1G	2B-y	2d]	4g]	2g
.	.	.	4f	.
.	2B-y	2G	4e	1dd
.	.	.	4d	.
2C	1A	1r	2e-i	.
[2c	.	.	2e-i	2cc
=68	=68	=68	=68	=68
2c]	2r	0r	2d	1dd
2B-y	2G	.	2B-y	.
2A	2A	.	2c	2cc
[2G	[2B-y	.	2d	[2b-y
=69	=69	=69	=69	=69
2G]	4B-]	1d	2G	2b-]
.	4c	.	.	.
2F	1d	.	2A	2a
1E	.	2G	2B-y	4g
.	.	.	.	4f
.	2c#i	[2g	2G	4g
.	.	.	.	4a
=70	=70	=70	=70	=70
1D	1d	2g]	2r	2b-y
.	.	2f	2d	1a
1r	1r	1e	2G	.
.	.	.	[2g	2g
=71	=71	=71	=71	=71
0r	2r	1d	2g]	2b-y
.	2d	.	2f	1a
.	2G	1r	1e	.
.	[2g	.	.	2g
=72	=72	=72	=72	=72
0r	2g]	2r	1d	1a
.	2f	1d	.	.
.	1e	.	1A	2r
.	.	2c	.	2a
=73	=73	=73	=73	=73
1G	1d	1B-y	0r	2d
.	.	.	.	1dd
2C	1e	1A	.	.
[2c	.	.	.	2cc
=74	=74	=74	=74	=74
2c]	1d	2r	2r	1dd
2B-y	.	2G	2B-y	.
2A	1r	2A	2c	2cc
[2G	.	[2B-y	[2d	[2b-y
=75	=75	=75	=75	=75
2G]	0r	2B-]	4d]	4b-]
.	.	.	4e	4a
2F	.	2A	1f	2.cc
1G	.	1B-y	.	.
.	.	.	.	4b-y
.	.	.	2e	[2b-y
=76	=76	=76	=76	=76
1F	1r	1c	1f	2b-]
.	.	.	.	2a
2r	2r	1B-y	2.d	[1b-y
[2G	[2B-y	.	.	.
.	.	.	4c	.
=77	=77	=77	=77	=77
2G]	4B-]	2r	4B-y	1b-]
.	4c	.	4A	.
2G	4d	1d	2B-y	.
.	4e	.	.	.
2F	1f	.	2A	1r
2D	.	2d	2F	.
=78	=78	=78	=78	=78
2E	2e	2c	2r	1r
2F	2c	2A	2f	.
[1G	2r	2B-y	2e	2r
.	[2d	4G	2d	[2b-y
.	.	4A	.	.
=79	=79	=79	=79	=79
1G]	2d]	4B-y	1g	2b-]
.	.	4c	.	.
.	2G	1d	.	2b-y
1r	1A	.	2f	2a
.	.	2c	2e	2cc
=80	=80	=80	=80	=80
0r	1D	0d	2d	2b-y
.	.	.	2.f	2.a
.	2r	.	.	.
.	.	.	4e	4g
.	2d	.	4d	4f
.	.	.	4c	4e
=81	=81	=81	=81	=81
2r	2.f	1r	2B-y	2.d
1D	.	.	2A	.
.	4e	.	.	4e
.	4d	2.A	2r	4f
.	4c	.	.	4g
2D	2d	.	2d	[2a
.	.	4B-y	.	.
=82	=82	=82	=82	=82
2C	1G	4c	2e	4a]
.	.	4B-y	.	4g
2E	.	4A	2c	1g
.	.	4G	.	.
1D	2r	1A	1d	.
.	2d	.	.	2f
=83	=83	=83	=83	=83
1G	2d	2r	1B-y	0b-y
.	2d	2.G	.	.
2C	2c	.	1r	.
.	.	4A	.	.
[2G	2e	[2B-y	.	.
=84	=84	=84	=84	=84
2G]	1d	4B-]	2r	0r
.	.	4c	.	.
2G	.	4d	1d	.
.	.	4e	.	.
2F	2r	1f	.	.
2D	2B-y	.	2d	.
=85	=85	=85	=85	=85
2E	2c	2r	2c	1r
2F	2.d	2f	2A	.
1G	.	2d	2.B-y	2r
.	4c	.	.	.
.	4B-y	[2g	.	[2b-y
.	4A	.	4c	.
=86	=86	=86	=86	=86
1G	1B-y	4g]	1d	2b-]
.	.	4f	.	.
.	.	4d	.	2b-y
.	.	4e	.	.
2F	1c	2.f	1r	2a
[2A	.	.	.	[2cc
.	.	8eL	.	.
.	.	8dJ	.	.
=87	=87	=87	=87	=87
2A]	2r	2c	0r	2cc]
2G	2G	2.e	.	2b-y
1F	2A	.	.	1a
.	.	4d	.	.
.	2F	[2d	.	.
=88	=88	=88	=88	=88
1E	2.G	2d]	2r	1g
.	.	2c#i	1g	.
.	4A	.	.	.
1D	2B-y	1d	.	2r
.	2A	.	2f	[2dd
=89	=89	=89	=89	=89
1G	0G	2r	2.g	2dd]
.	.	2B-y	.	2dd
.	.	.	4f	.
2.C	.	2c	4e	2cc
.	.	.	4d	.
.	.	2c	[2c	[2ee
4D	.	.	.	.
=90	=90	=90	=90	=90
4E	2r	1G	2c]	2ee]
4F	.	.	.	.
2G	2B-y	.	2B-y	1dd
1C	2A	2r	2c	.
.	[2G	4G	2e-i	2cc
.	.	4A	.	.
=91	=91	=91	=91	=91
0D	2G]	4B-y	2d	2b-y
.	.	4c	.	.
.	4F	2.d	2.f	2.a
.	4E	.	.	.
.	1F	.	.	.
.	.	4e	4e	4g
.	.	[2f	4d	4f
.	.	.	4c	4e
=92	=92	=92	=92	=92
2r	2r	4f]	2B-y	2.d
.	.	4e	.	.
1D	1F	4d	2A	.
.	.	4c	.	4e
.	.	2d	2r	4f
.	.	.	.	4g
2D	2F	2A	2d	[2a
=93	=93	=93	=93	=93
2C	2.G	1c	2e	4a]
.	.	.	.	4b-y
2E	.	.	2c	2cc
.	4A	.	.	.
2.D	4B-y	1F	2d	2b-y
.	4c	.	.	.
.	2d	.	[2f	[2a
4E	.	.	.	.
=94	=94	=94	=94	=94
2F	2c	1r	2f]	4a]
.	.	.	.	4g
2G	2B-y	.	2e	1g
1D	1A	2r	1d	.
.	.	[2d	.	2f#i
=95	=95	=95	=95	=95
1G	[0Gl	2d]	2r	[0gl
.	.	2d	2d	.
1C	.	2c	2e	.
.	.	2e	[2c	.
=96	=96	=96	=96	=96
1G	0G_	1d	2c]	0g_
.	.	.	2B-y	.
1C	.	2r	2.c	.
.	.	[2c	.	.
.	.	.	4d	.
=97	=97	=97	=97	=97
[0Gl	0G_	2c]	1e-i	0g_
.	.	4B-y	.	.
.	.	4A	.	.
.	.	[1B-yl	[1dl	.
=98	=98	=98	=98	=98
00G]	00G]	00B-]	00d]	00g]
==	==	==	==	==
*-	*-	*-	*-	*-
!!!system-decoration: [*]
!!!RDF**kern: i = editorial accidental
!!!RDF**kern: l = terminal long
!!!ENC: Benjamin Ory
!!!END: 2024/12/29
!!!EED: Benjamin Ory
!!!EEV: 2025/02/20
!!!YEC: Copyright 2025 Benjamin Ory, All Rights Reserved
!!!ONB: Translated from MusicXML on 2025/02/20